X:1
T:Eucharisticus, 65.65
T:John Stainer, 1875
T:Eucharisticus, 65.65
T:Public Domain
C:John Stainer, 1875
Z:Public Domain
%%score ( 1 2 ) ( 3 4 )
L:1/8
M:4/4
K:Eb
V:1 treble 
V:2 treble 
V:3 bass 
V:4 bass 
V:1
 [EG]2 [EG]2 [DF]2 [=EG]2 | [FA]4 [DF]4 | [EB]2 E2 [EF]2 [DG]2 | [EA]8 | [Ee]2 [Ec]2 [=EB]2 [FA]2 | %5
 [FA]4 [=EG]4 | F2 [EG]2 [CA]2 [B,D]2 | [B,E]8 |] %8
V:2
 x8 | x8 | x2 E2 x4 | x8 | x8 | x8 | F2 x6 | x8 |] %8
V:3
 [E,B,]2 [E,B,]2 [A,B,]2 [G,B,]2 | [F,C]4 B,4 | [G,B,]2 [CE]2 B,2 [B,,B,]2 | [C,A,]8 | %4
 [C,A,]2 A,2 [G,B,]2 [F,C]2 | [B,_D]4 [B,D]4 | [A,C]2 [G,B,]2 [F,A,]2 [B,,A,]2 | [E,G,]8 |] %8
V:4
 x8 | x4 B,4 | x4 B,2 x2 | x8 | x2 A,2 x4 | x8 | x8 | x8 |] %8

